icons/image-16.svg

<svg xmlns="http://www.w3.org/2000/svg" width="16" height="16" viewBox="0 0 16 16"><path d="M16 13.25A1.75 1.75 0 0114.25 15H1.75A1.75 1.75 0 010 13.25V2.75C0 1.784.784 1 1.75 1h12.5c.966 0 1.75.784 1.75 1.75zM1.75 2.5a.25.25 0 00-.25.25v10.5c0 .138.112.25.25.25h.94l.03-.03 6.077-6.078a1.75 1.75 0 012.412-.06L14.5 10.31V2.75a.25.25 0 00-.25-.25zm12.5 11a.25.25 0 00.25-.25v-.917l-4.298-3.889a.25.25 0 00-.344.009L4.81 13.5zM7 6a2 2 0 11-3.999.001A2 2 0 017 6zM5.5 6a.5.5 0 10-1 0 .5.5 0 001 0z"/></svg>

<svg xmlns="http://www.w3.org/2000/svg" width="16" height="16" viewBox="0 0 16 16">
  <defs/>
  <path d="M16,13.25 C16,14.216 15.216,15 14.25,15 L1.75,15 C0.784,15 0,14.216 0,13.25 L0,2.75 C0,1.784 0.784,1 1.75,1 L14.25,1 C15.216,1 16,1.784 16,2.75 Z M1.75,2.5 C1.612,2.5 1.5,2.612 1.5,2.75 L1.5,13.25 C1.5,13.388 1.612,13.5 1.75,13.5 L2.69,13.5 C2.7,13.49 2.71,13.48 2.72,13.47 L8.797,7.392 C9.457,6.732 10.517,6.706 11.209,7.332 L14.5,10.31 L14.5,2.75 C14.5,2.612 14.388,2.5 14.25,2.5 Z M14.25,13.5 C14.388,13.5 14.5,13.388 14.5,13.25 L14.5,12.333 L10.202,8.444 C10.103,8.355 9.952,8.359 9.858,8.453 L4.81,13.5 Z M7,6 C7,7.105 6.105,8 5,8 C3.895,8 3,7.105 3,6 C3,4.895 3.895,4 5,4 C6.105,4 7,4.895 7,6 Z M5.5,6 C5.5,5.724 5.276,5.5 5,5.5 C4.724,5.5 4.5,5.724 4.5,6 C4.5,6.276 4.724,6.5 5,6.5 C5.276,6.5 5.5,6.276 5.5,6 Z"/>
</svg>
